dist/icons/svgs/object-group-outline.svg

<svg xmlns="http://www.w3.org/2000/svg" width="24" height="24" fill="currentcolor" class="icon-object-group-outline" viewBox="0 0 24 24">
  <path d="M3.125 6.53125C2.73438 6.17969 2.5 5.71094 2.5 5.125C2.5 4.10938 3.32031 3.25 4.375 3.25C4.92188 3.25 5.42969 3.52344 5.74219 3.875H19.2188C19.5703 3.52344 20.0391 3.25 20.625 3.25C21.6406 3.25 22.5 4.10938 22.5 5.125C22.5 5.71094 22.2266 6.17969 21.875 6.53125V17.5078C22.2266 17.8203 22.5 18.3281 22.5 18.875C22.5 19.9297 21.6406 20.75 20.625 20.75C20.0391 20.75 19.5703 20.5156 19.2188 20.125H5.74219C5.42969 20.5156 4.92188 20.75 4.375 20.75C3.32031 20.75 2.5 19.9297 2.5 18.875C2.5 18.3281 2.73438 17.8203 3.125 17.5078V6.53125ZM6.13281 5.75C5.9375 6.29688 5.50781 6.72656 5 6.92188V17.1172C5.50781 17.3125 5.9375 17.7422 6.13281 18.25H18.8281C19.0234 17.7422 19.4531 17.3125 20 17.1172V6.92188C19.4531 6.72656 19.0234 6.29688 18.8281 5.75H6.13281ZM6.25 8.25C6.25 7.58594 6.79688 7 7.5 7H12.5C13.1641 7 13.75 7.58594 13.75 8.25V12C13.75 12.7031 13.1641 13.25 12.5 13.25H7.5C6.79688 13.25 6.25 12.7031 6.25 12V8.25ZM11.25 14.5H12.5C13.8672 14.5 15 13.4062 15 12V10.75H17.5C18.1641 10.75 18.75 11.3359 18.75 12V15.75C18.75 16.4531 18.1641 17 17.5 17H12.5C11.7969 17 11.25 16.4531 11.25 15.75V14.5Z"/>
</svg>

<svg xmlns="http://www.w3.org/2000/svg" width="24" height="24" fill="currentColor" class="icon-object-group-outline" viewBox="0 0 24 24">
  <path d="M3.125 6.531A1.83 1.83 0 0 1 2.5 5.125c0-1.016.82-1.875 1.875-1.875.547 0 1.055.273 1.367.625H19.22c.351-.352.82-.625 1.406-.625 1.016 0 1.875.86 1.875 1.875 0 .586-.273 1.055-.625 1.406v10.977c.352.312.625.82.625 1.367 0 1.055-.86 1.875-1.875 1.875a1.83 1.83 0 0 1-1.406-.625H5.742c-.312.39-.82.625-1.367.625A1.85 1.85 0 0 1 2.5 18.875c0-.547.234-1.055.625-1.367zm3.008-.781A1.98 1.98 0 0 1 5 6.922v10.195c.508.195.938.625 1.133 1.133h12.695A1.98 1.98 0 0 1 20 17.117V6.922a1.94 1.94 0 0 1-1.172-1.172zm.117 2.5C6.25 7.586 6.797 7 7.5 7h5c.664 0 1.25.586 1.25 1.25V12c0 .703-.586 1.25-1.25 1.25h-5c-.703 0-1.25-.547-1.25-1.25zm5 6.25h1.25c1.367 0 2.5-1.094 2.5-2.5v-1.25h2.5c.664 0 1.25.586 1.25 1.25v3.75c0 .703-.586 1.25-1.25 1.25h-5c-.703 0-1.25-.547-1.25-1.25z"/>
</svg>
